src/images/global/icons/action/chat-line.svg

<?xml version="1.0" encoding="UTF-8"?>
<svg width="48px" height="48px" viewBox="0 0 48 48" version="1.1" xmlns="http://www.w3.org/2000/svg" xmlns:xlink="http://www.w3.org/1999/xlink">
    <!-- Generator: Sketch 46.2 (44496) - http://www.bohemiancoding.com/sketch -->
    <title>icon/Action/chat-line</title>
    <desc>Created with Sketch.</desc>
    <defs>
        <path d="M24.875125,22 C24.684875,22 24.4975,21.9306522 24.354875,21.7993696 L19.91025,17.7066522 C19.90425,17.702587 19.89875,17.6988804 19.8935,17.6956522 L15,17.6956522 C13.57475,17.6956522 12.5,16.6676304 12.5,15.3043478 L12.5,8.48913043 C12.5,7.23644565 13.6215,6.2173913 15,6.2173913 L28,6.2173913 C28.983125,6.2173913 30,7.02242391 30,8.36956522 L30,15.3043478 C30,15.807837 29.7365,16.3846196 29.295,16.847337 C28.808125,17.3577609 28.186125,17.6584674 27.54375,17.6944565 C27.529125,17.6952935 27.5145,17.6956522 27.5,17.6956522 L25.626125,17.6956522 L25.625,21.2826087 C25.625,21.5702826 25.44525,21.8300978 25.168625,21.9427283 C25.074,21.9813478 24.974125,22 24.875125,22 L24.875125,22 Z M15,7.65217391 L28,7.65217391 C28.163125,7.65217391 28.5,7.82757609 28.5,8.36956522 L28.5,15.3043478 C28.5,15.5624891 28.0575,16.2153152 27.4745,16.2608696 L25.375,16.2608696 C24.674125,16.2608696 24.125,16.8386087 24.125,17.576087 L24.125,19.5962609 L20.916625,16.6418043 C20.897375,16.6238696 20.877,16.6071304 20.85575,16.5913478 C20.55975,16.3720652 20.27175,16.2608696 20,16.2608696 L15,16.2608696 C14.41125,16.2608696 14,15.8675 14,15.3043478 L14,8.48913043 C14,8.0276087 14.448625,7.65217391 15,7.65217391 Z M5.94875,17.1570109 C5.676125,17.042587 5.5,16.7848043 5.5,16.5 L5.5,13.096337 C5.459625,13.0647717 5.383125,13.0309348 5.3345,13.0309348 L2.102625,13.0309348 C0.962875,13.0309348 0,11.9914348 0,10.7608696 L0,2.15217391 C0,0.96548913 0.95325,0 2.125,0 L18.875,0 C20.04675,0 21,0.96548913 21,2.15217391 L21,6.22187245 L19.5,6.22187245 L19.5,2.15217391 C19.5,1.70906522 19.1755,1.43478261 18.875,1.43478261 L2.125,1.43478261 C1.824375,1.43478261 1.5,1.70906522 1.5,2.15217391 L1.5,10.7608696 C1.5,11.223587 1.829625,11.5961522 2.102625,11.5961522 L5.3345,11.5961522 C6.12225,11.5961522 7,12.186087 7,13.0326087 L7,14.8638696 L10.491875,11.7875761 C10.630375,11.6655 10.81175,11.5978261 11,11.5978261 C11.37425,11.5978261 12.489875,11.5934022 12.49,11.5934022 L12.49625,13.0281848 C12.49625,13.0281848 11.7725,13.0310543 11.29325,13.0321304 L6.758125,17.0276413 C6.616875,17.1521087 6.434625,17.2173913 6.249875,17.2173913 C6.148125,17.2173913 6.045625,17.197663 5.94875,17.1570109 Z" id="path-1"></path>
    </defs>
    <g id="Symbols" stroke="none" stroke-width="1" fill="none" fill-rule="evenodd">
        <g id="icon/Action/chat-line">
            <g id="Icon" transform="translate(9.000000, 14.000000)">
                <mask id="mask-2" fill="white">
                    <use xlink:href="#path-1"></use>
                </mask>
                <use id="Mask" fill="#384048" xlink:href="#path-1"></use>
                <g id="Color/Grayscale/Night-Sky" mask="url(#mask-2)" fill="#111111">
                    <g transform="translate(-9.000000, -14.000000)" id="Swatch">
                        <rect x="0" y="0" width="48" height="48"></rect>
                    </g>
                </g>
            </g>
        </g>
    </g>
</svg>

<?xml version="1.0" encoding="utf-8"?>
<!-- Generator: Adobe Illustrator 21.0.2, SVG Export Plug-In . SVG Version: 6.00 Build 0)  -->
<svg version="1.1" id="action-chat-line-Layer_1" xmlns="http://www.w3.org/2000/svg" xmlns:xlink="http://www.w3.org/1999/xlink" x="0px" y="0px"
	 viewBox="0 0 48 48" style="enable-background:new 0 0 48 48;" xml:space="preserve">
<title>icon/Action/chat-line</title>
<g transform="translate(9 14)">
	<g>
		<path id="action-chat-line-a_1_" style="fill:#384048;" d="M24.9,22c-0.2,0-0.4-0.1-0.5-0.2l-4.4-4.1c0,0,0,0,0,0H15c-1.4,0-2.5-1-2.5-2.4V8.5
			c0-1.3,1.1-2.3,2.5-2.3h13c1,0,2,0.8,2,2.2v6.9c0,0.5-0.3,1.1-0.7,1.5c-0.5,0.5-1.1,0.8-1.8,0.8c0,0,0,0,0,0h-1.9l0,3.6
			c0,0.3-0.2,0.5-0.5,0.7C25.1,22,25,22,24.9,22L24.9,22z M15,7.7h13c0.2,0,0.5,0.2,0.5,0.7v6.9c0,0.3-0.4,0.9-1,1h-2.1
			c-0.7,0-1.3,0.6-1.3,1.3v2l-3.2-3c0,0,0,0-0.1,0c-0.3-0.2-0.6-0.3-0.9-0.3h-5c-0.6,0-1-0.4-1-1V8.5C14,8,14.4,7.7,15,7.7L15,7.7z
			 M5.9,17.2c-0.3-0.1-0.4-0.4-0.4-0.7v-3.4c0,0-0.1-0.1-0.2-0.1H2.1C1,13,0,12,0,10.8V2.2C0,1,1,0,2.1,0h16.8C20,0,21,1,21,2.2v4.1
			h-1.5V2.2c0-0.4-0.3-0.7-0.6-0.7H2.1c-0.3,0-0.6,0.3-0.6,0.7v8.6c0,0.5,0.3,0.8,0.6,0.8h3.2C6.1,11.6,7,12.2,7,13v1.8l3.5-3.1
			c0.1-0.1,0.3-0.2,0.5-0.2c0.4,0,1.5,0,1.5,0l0,1.4l-1.2,0l-4.5,4C6.5,17.2,6.2,17.3,5.9,17.2L5.9,17.2z"/>
	</g>
	<defs>
		<filter id="action-chat-line-Adobe_OpacityMaskFilter" filterUnits="userSpaceOnUse" x="-9" y="-14" width="48" height="48">
			<feColorMatrix  type="matrix" values="1 0 0 0 0  0 1 0 0 0  0 0 1 0 0  0 0 0 1 0"/>
		</filter>
	</defs>
	<mask maskUnits="userSpaceOnUse" x="-9" y="-14" width="48" height="48" id="action-chat-line-b">
		<g style="filter:url(#action-chat-line-Adobe_OpacityMaskFilter);">
			<path id="action-chat-line-a" style="fill:#FFFFFF;" d="M24.9,22c-0.2,0-0.4-0.1-0.5-0.2l-4.4-4.1c0,0,0,0,0,0H15c-1.4,0-2.5-1-2.5-2.4V8.5
				c0-1.3,1.1-2.3,2.5-2.3h13c1,0,2,0.8,2,2.2v6.9c0,0.5-0.3,1.1-0.7,1.5c-0.5,0.5-1.1,0.8-1.8,0.8c0,0,0,0,0,0h-1.9l0,3.6
				c0,0.3-0.2,0.5-0.5,0.7C25.1,22,25,22,24.9,22L24.9,22z M15,7.7h13c0.2,0,0.5,0.2,0.5,0.7v6.9c0,0.3-0.4,0.9-1,1h-2.1
				c-0.7,0-1.3,0.6-1.3,1.3v2l-3.2-3c0,0,0,0-0.1,0c-0.3-0.2-0.6-0.3-0.9-0.3h-5c-0.6,0-1-0.4-1-1V8.5C14,8,14.4,7.7,15,7.7L15,7.7z
				 M5.9,17.2c-0.3-0.1-0.4-0.4-0.4-0.7v-3.4c0,0-0.1-0.1-0.2-0.1H2.1C1,13,0,12,0,10.8V2.2C0,1,1,0,2.1,0h16.8C20,0,21,1,21,2.2
				v4.1h-1.5V2.2c0-0.4-0.3-0.7-0.6-0.7H2.1c-0.3,0-0.6,0.3-0.6,0.7v8.6c0,0.5,0.3,0.8,0.6,0.8h3.2C6.1,11.6,7,12.2,7,13v1.8
				l3.5-3.1c0.1-0.1,0.3-0.2,0.5-0.2c0.4,0,1.5,0,1.5,0l0,1.4l-1.2,0l-4.5,4C6.5,17.2,6.2,17.3,5.9,17.2L5.9,17.2z"/>
		</g>
	</mask>
	<g style="mask:url(#action-chat-line-b);">
		<path style="fill:#111111;" d="M-9-14h48v48H-9V-14z"/>
	</g>
</g>
</svg>
